src/assets/icons/biz-money,fancy,briefcase.svg

<svg width="48" height="48" viewBox="0 0 48 48" fill="none" xmlns="http://www.w3.org/2000/svg">
<path opacity="0.8" fill-rule="evenodd" clip-rule="evenodd" d="M6.17157 13.1716C5 14.3431 5 16.2288 5 20V32C5 35.7712 5 37.6569 6.17157 38.8284C7.34315 40 9.22876 40 13 40H35C38.7712 40 40.6569 40 41.8284 38.8284C43 37.6569 43 35.7712 43 32V20C43 16.2288 43 14.3431 41.8284 13.1716C40.6569 12 38.7712 12 35 12H13C9.22876 12 7.34315 12 6.17157 13.1716ZM13 23.5C13 24.3284 12.3284 25 11.5 25C10.6716 25 10 24.3284 10 23.5C10 22.6716 10.6716 22 11.5 22C12.3284 22 13 22.6716 13 23.5ZM38 23.5C38 24.3284 37.3284 25 36.5 25C35.6716 25 35 24.3284 35 23.5C35 22.6716 35.6716 22 36.5 22C37.3284 22 38 22.6716 38 23.5ZM23 24C22.4477 24 22 24.4477 22 25V29C22 29.5523 22.4477 30 23 30H25C25.5523 30 26 29.5523 26 29V25C26 24.4477 25.5523 24 25 24H23Z" fill="black"/>
<g opacity="0.4">
<path d="M13 23.5C13 24.3284 12.3284 25 11.5 25C10.6716 25 10 24.3284 10 23.5C10 22.6716 10.6716 22 11.5 22C12.3284 22 13 22.6716 13 23.5Z" fill="black"/>
<path d="M38 23.5C38 24.3284 37.3284 25 36.5 25C35.6716 25 35 24.3284 35 23.5C35 22.6716 35.6716 22 36.5 22C37.3284 22 38 22.6716 38 23.5Z" fill="black"/>
</g>
<path fill-rule="evenodd" clip-rule="evenodd" d="M5.90796 13.4624C5 14.5688 5 16.2125 5 19.5C5 22.7875 5 24.4312 5.90796 25.5376C6.07418 25.7401 6.25989 25.9258 6.46243 26.092C7.56878 27 9.21252 27 12.5 27H22V25C22 24.4477 22.4477 24 23 24H25C25.5523 24 26 24.4477 26 25V27H35.5C38.7875 27 40.4312 27 41.5376 26.092C41.7401 25.9258 41.9258 25.7401 42.092 25.5376C43 24.4312 43 22.7875 43 19.5C43 16.2125 43 14.5688 42.092 13.4624C41.9258 13.2599 41.7401 13.0742 41.5376 12.908C40.4312 12 38.7875 12 35.5 12H12.5C9.21252 12 7.56878 12 6.46243 12.908C6.25989 13.0742 6.07418 13.2599 5.90796 13.4624ZM13 23.5C13 24.3284 12.3284 25 11.5 25C10.6716 25 10 24.3284 10 23.5C10 22.6716 10.6716 22 11.5 22C12.3284 22 13 22.6716 13 23.5ZM38 23.5C38 24.3284 37.3284 25 36.5 25C35.6716 25 35 24.3284 35 23.5C35 22.6716 35.6716 22 36.5 22C37.3284 22 38 22.6716 38 23.5Z" fill="black"/>
<rect opacity="0.2" x="22" y="24" width="4" height="6" rx="1" fill="black"/>
<g opacity="0.8">
<mask id="path-5-inside-1_121:1348" fill="white">
<rect x="16" y="7" width="16" height="8" rx="2"/>
</mask>
<rect x="16" y="7" width="16" height="8" rx="2" stroke="black" stroke-width="6" mask="url(#path-5-inside-1_121:1348)"/>
</g>
</svg>

<svg xmlns="http://www.w3.org/2000/svg" width="48" height="48" fill="none" viewBox="0 0 48 48">
  <path fill="#000" fill-rule="evenodd" d="M6.172 13.172C5 14.343 5 16.229 5 20v12c0 3.771 0 5.657 1.172 6.828C7.343 40 9.229 40 13 40h22c3.771 0 5.657 0 6.828-1.172C43 37.657 43 35.771 43 32V20c0-3.771 0-5.657-1.172-6.828C40.657 12 38.771 12 35 12H13c-3.771 0-5.657 0-6.828 1.172zM13 23.5a1.5 1.5 0 11-3 0 1.5 1.5 0 013 0zm25 0a1.5 1.5 0 11-3 0 1.5 1.5 0 013 0zM23 24a1 1 0 00-1 1v4a1 1 0 001 1h2a1 1 0 001-1v-4a1 1 0 00-1-1h-2z" clip-rule="evenodd" opacity=".8"/>
  <g opacity=".4">
    <path fill="#000" d="M13 23.5a1.5 1.5 0 11-3 0 1.5 1.5 0 013 0zM38 23.5a1.5 1.5 0 11-3 0 1.5 1.5 0 013 0z"/>
  </g>
  <path fill="#000" fill-rule="evenodd" d="M5.908 13.462C5 14.57 5 16.212 5 19.5c0 3.288 0 4.931.908 6.038a4 4 0 00.554.554C7.57 27 9.212 27 12.5 27H22v-2a1 1 0 011-1h2a1 1 0 011 1v2h9.5c3.288 0 4.931 0 6.038-.908.202-.166.388-.352.554-.554C43 24.43 43 22.788 43 19.5c0-3.288 0-4.931-.908-6.038a4.001 4.001 0 00-.554-.554C40.43 12 38.788 12 35.5 12h-23c-3.287 0-4.931 0-6.038.908a4 4 0 00-.554.554zM13 23.5a1.5 1.5 0 11-3 0 1.5 1.5 0 013 0zm25 0a1.5 1.5 0 11-3 0 1.5 1.5 0 013 0z" clip-rule="evenodd"/>
  <rect width="4" height="6" x="22" y="24" fill="#000" opacity=".2" rx="1"/>
  <g opacity=".8">
    <mask id="a" fill="#fff">
      <rect width="16" height="8" x="16" y="7" rx="2"/>
    </mask>
    <rect width="16" height="8" x="16" y="7" stroke="#000" stroke-width="6" mask="url(#a)" rx="2"/>
  </g>
</svg>
